icons/core/fullscreen-exit.svg

<svg width="32" height="32" viewBox="0 0 32 32" xmlns="http://www.w3.org/2000/svg"><path fill-rule="evenodd" clip-rule="evenodd" d="M10 4L10 10L4 10V12L10 12C11.1046 12 12 11.1046 12 10L12 4H10ZM22 4.00001V10L28 10V12H22C20.8954 12 20 11.1046 20 10V4.00001H22ZM4 22H10V28H12V22C12 20.8954 11.1046 20 10 20H4V22ZM22 20C20.8954 20 20 20.8954 20 22V28H22V22H28V20H22Z"/></svg>

<svg viewBox="0 0 32 32" xmlns="http://www.w3.org/2000/svg"><path fill-rule="evenodd" d="M10 4v6H4v2h6a2 2 0 002-2V4h-2zm12 0v6h6v2h-6a2 2 0 01-2-2V4h2zM4 22h6v6h2v-6a2 2 0 00-2-2H4v2zm18-2a2 2 0 00-2 2v6h2v-6h6v-2h-6z"/></svg>
